X:156
T:Knocknaboul Reel, The
B:CRE2.253 (Cnoc na bPoll)
F:file ID: cre.2/156knock
Q:180
L:1/8
M:4/4
R:reel
K:Em
dB B2 dB B2|dBBA g2 (3gfe|dB B2 dB B2|AFDF E2 FG|
dB B2 dB B2|dBBA g2 fe|dB B2 dB B2|AFDF E4||
g2 ge faag|edB^c d2 ef|g2 fg edBd|faag ed d2|
g2 ge faag|edB^c d2 ef|g2 ed BAFG|AFDF FE E2||

%%%

